client/src/assets/icons/arrow-forward.svg

<svg width="8" height="14" viewBox="0 0 8 14" fill="none" xmlns="http://www.w3.org/2000/svg">
<path d="M2.09136 0.673393C1.63751 0.219546 0.901654 0.219546 0.447807 0.673393C-0.0058167 1.12726 -0.00596547 1.86318 0.447807 2.31695L5.13042 6.99859L0.447807 11.6812C-0.00603986 12.1351 -0.00603986 12.8709 0.447807 13.3248C0.901655 13.7786 1.63752 13.7786 2.09136 13.3248L7.55132 7.8648C7.78847 7.62766 7.90087 7.31316 7.89019 7.00249C7.90279 6.6896 7.79119 6.37225 7.5523 6.13335L2.09136 0.673393Z" fill="#1A1A1A"/>
</svg>

<svg xmlns="http://www.w3.org/2000/svg" width="8" height="14" fill="none"><path fill="#1A1A1A" d="M2.0914.6734C1.6375.2195.9017.2195.4478.6734c-.4536.4539-.4538 1.1898 0 1.6435l4.6826 4.6817-4.6826 4.6826c-.4538.4539-.4538 1.1897 0 1.6436.4539.4538 1.1897.4538 1.6436 0l5.46-5.46a1.159 1.159 0 0 0 .3388-.8623c.0126-.3129-.099-.6303-.3379-.8692l-5.461-5.46Z"/></svg>
